X:1
T:Title
%%score { 1 | 2 }
L:1/8
Q:1/4=100
M:4/4
K:Bb
V:1 treble nm="Grand Piano"
V:2 bass 
V:1
 [DF][EG][DF][CE] [B,D]2 [DB]2 | [EA]2 [EA]2 A4 | EFED C2 G2 | F2 E2 D4 | %4
w: Haldor~Lillenas * * * * *||||
 [DF][EG][DF][CE] [B,D]2 [DF]2 | [FB]2 [FA]2 [EG]2 [Ge][Ge] | [Fd]4 [Ec]4 | [DB]6 z2 | %8
w: ||||
 [Fd]>[=E_d] [F=d]>[E_d] [F=d][DB][DF][DG] | [EA]2 [EA]2 A4 | e>d e>d cAGF | [FB]2 [Fc]2 [Fd]4 | %12
w: ||||
 [Ff]>[F=e] f>e fd[FB][FA] | [EG]2 [Ge]2 [Ge]2 [GB][^Fc] | [Fd]4 [Ec]4 | [DB]6 z2 |] %16
w: ||||
V:2
 [B,,B,][B,,B,][B,,B,][B,,F,] [B,,F,]2 [B,,F,]2 | [C,F,]2 [C,F,]2 [F,CE]4 | %2
 [F,A,C][F,A,D][F,A,C][F,B,] [F,A,]2 [F,A,E]2 | [F,B,D]2 [F,A,C]2 [B,,B,]4 | %4
 [B,,B,][B,,B,][B,,B,][B,,F,] [B,,F,]2 [B,,B,]2 | [D,B,]2 [D,B,]2 [E,B,]2 [C,C][E,C] | %6
 [F,B,]4 [F,A,]4 | [B,,B,]6 z2 | [B,,B,]>[B,,B,] [B,,B,]>[B,,B,] [B,,B,][B,,B,][B,,B,][B,,F,] | %9
 [C,F,]2 [C,F,]2 [F,CE]4 | [F,A,F]>[F,_A,F] [F,=A,F]>[F,_A,F] [F,=A,F][F,CF][F,B,F][F,A,] | %11
 [D,B,]2 [C,A,]2 [B,,B,]4 | [D,B,]>[D,B,][K:treble] [F,DF]>[F,DF] [B,DF][B,F][K:bass][D,B,][D,B,] | %13
 [E,B,]2 [E,B,]2 [E,B,]2 [E,B,][E,B,] | [F,B,]4 [F,A,]4 | [B,,B,]6 z2 |] %16

